usr/share/icons/biglinux-icons-material/16/places/network-server-database.svg

<svg width="16" height="16" version="1.1" xmlns="http://www.w3.org/2000/svg">
 <defs>
  <style id="current-color-scheme" type="text/css">.ColorScheme-Text { color:#363636; }</style>
 </defs>
 <path class="ColorScheme-Text" d="m8 2a6 2 0 0 0-6 2v8a6 2 0 0 0 6 2 6 2 0 0 0 6-2v-8a6 2 0 0 0-6-2zm0 1a5 1 0 0 1 5 1 5 1 0 0 1-5 1 5 1 0 0 1-5-1 5 1 0 0 1 5-1zm-5 2.1016a6 2 0 0 0 5 0.89844 6 2 0 0 0 5-0.89648v2.8965a5 1 0 0 1-5 1 5 1 0 0 1-5-1v-2.8984zm0 4a6 2 0 0 0 5 0.89844 6 2 0 0 0 5-0.89648v2.8965a5 1 0 0 1-5 1 5 1 0 0 1-5-1v-2.8984z" fill="currentColor"/>
</svg>

<svg xmlns="http://www.w3.org/2000/svg" width="16" height="16"><path fill="currentColor" d="M8 2a6 2 0 0 0-6 2v8a6 2 0 0 0 6 2 6 2 0 0 0 6-2V4a6 2 0 0 0-6-2zm0 1a5 1 0 0 1 5 1 5 1 0 0 1-5 1 5 1 0 0 1-5-1 5 1 0 0 1 5-1zM3 5.102A6 2 0 0 0 8 6a6 2 0 0 0 5-.896V8a5 1 0 0 1-5 1 5 1 0 0 1-5-1V5.102zm0 4A6 2 0 0 0 8 10a6 2 0 0 0 5-.896V12a5 1 0 0 1-5 1 5 1 0 0 1-5-1V9.102z" style="color:#dedede"/></svg>
